usr/share/icons/biglinux-icons-material-dark/16/actions/path-effect-parameter-next.svg

<svg xmlns="http://www.w3.org/2000/svg" viewBox="0 0 16 16">
  <defs id="defs3051">
    <style type="text/css" id="current-color-scheme">
      .ColorScheme-Text {
        color:#dedede;
      }
      .ColorScheme-Highlight {
        color:#3daee9;
      }
      </style>
  </defs>
  <path 
        style="fill:currentColor;fill-opacity:1;stroke:none"
        d="M 11 2 L 11 5 L 14 5 L 14 2 L 11 2 z M 12 3 L 13 3 L 13 4 L 12 4 L 12 3 z M 13 9 L 13 14 L 14 14 L 14 9 L 13 9 z M 9.6074219 9.0019531 C 9.6364219 8.9859531 9 9.609375 9 9.609375 L 10.904297 11.501953 L 9.03125 13.435547 L 9.6074219 14.001953 L 12 11.501953 L 9.6074219 9.0019531 z M 3.5 11 C 2.669 11 2 11.02227 2 11.048828 L 2 13.951172 C 2 13.97773 2.669 14 3.5 14 C 4.331 14 5 13.97773 5 13.951172 L 5 11.048828 C 5 11.02227 4.331 11 3.5 11 z M 3 12 L 4 12 L 4 13 L 3 13 L 3 12 z "
        class="ColorScheme-Text"
        />
  <path
        style="fill:currentColor;fill-opacity:1;stroke:none"
        d="m 11,3 a 8,8 0 0 0 -8,8 l 1,0 a 7,7 0 0 1 7,-7 z"
        class="ColorScheme-Highlight"
      />
</svg>

<svg xmlns="http://www.w3.org/2000/svg" viewBox="0 0 16 16">
<defs id="defs3051">
<style id="current-color-scheme" type="text/css">
.ColorScheme-Text{color:#dedede}.ColorScheme-Highlight{color:#3daee9}
</style>
</defs>
<path d="M11 2v3h3V2zm1 1h1v1h-1zm1 6v5h1V9zm-3.393.002A27 27 0 0 1 9 9.609l1.904 1.893-1.873 1.934.576.566 2.393-2.5zM3.5 11c-.831 0-1.5.022-1.5.049v2.902c0 .027.669.049 1.5.049s1.5-.022 1.5-.049V11.05c0-.028-.669-.05-1.5-.05M3 12h1v1H3z" class="ColorScheme-Text" style="fill:currentColor;fill-opacity:1;stroke:none"/>
<path d="M11 3a8 8 0 0 0-8 8h1a7 7 0 0 1 7-7z" class="ColorScheme-Highlight" style="fill:currentColor;fill-opacity:1;stroke:none"/>
</svg>
